!!!!SEGMENT: pl-kk--kk-i-1--040_anonim--tractus-de-bmv-audi-filia.krn
!!!cenid: 15xx:753
!!!COM: Anonim
!!!COM-rismID: pe30004985
!!!CDT:
!!!CNT:
!!!OTL: Tractus de BMV/Audi filia
!!!PDT:
!!!AGN:
!!!SMS-siglum: PL-Kk
!!!SMS-shelfmark: Kk.I.1
!!!SMS-shelfwork: 040 W
!!!SMS-variant:
!!!SMS-altvar:
!!!NIFC-rismSourceID: 300257994
!!!NIFC-islandoraID: pl-kk:1
!!!URL-pdf-islandora: https://repozytorium.nifc.pl/islandora/object/pl-kk%3A1/datastream/PDF/view
!!!URL-scan: https://polish.musicsources.pl/pl/lokalizacje/galeria/rekopisy/5736 @EN{Scan on Polish Music Sources Website} @PL{Skany w portalu Dziedzictwo Muzyki Polskiej w otwartym dostępie}
!!!ONB-nifc: UWAGA: Cantus (s. 136v-139v, skan 0139-0142), Altus (s. 131v-134v, skan 0325-0328), Tenor (s. 113r-114v, skan 0503-0505), Bassus (s. 124r-126v, skan 0686-0689).
!!!AIN: 1 alto 1 bass 1 soprn 1 tenor
!!!key: g:dor
**kern	**text	**text	**kern	**text	**kern	**text	**kern	**text
*part4	*part4	*part4	*part3	*part3	*part2	*part2	*part1	*part1
*staff4	*staff4	*staff4	*staff3	*staff3	*staff2	*staff2	*staff1	*staff1
*I"BASSVS	*	*	*I"TENOR	*	*I"ALTVS	*	*I"CANTVS	*
*I'B	*	*	*I'T	*	*I'A	*	*I'S	*
*Ibass	*	*	*Itenor	*	*Ialto	*	*Isoprn	*
*ICvox	*	*	*ICvox	*	*ICvox	*	*ICvox	*
*clefF4	*	*	*clefC5	*	*clefC4	*	*clefC3	*
*k[b-]	*	*	*k[]	*	*k[b-]	*	*k[b-]	*
*g:dor	*	*	*g:dor	*	*g:dor	*	*g:dor	*
*M2/1	*	*	*M2/1	*	*M2/1	*	*M2/1	*
*met(C|)	*	*	*met(C|)	*	*met(C|)	*	*met(C|)	*
*all\middle	*	*	*all\middle	*	*all\middle	*	*all\middle	*
=1-	=1-	=1-	=1-	=1-	=1-	=1-	=1-	=1-
!	!	!	!LO:TX:t=P:problem=brak bemola przy kluczu	!	!	!	!	!
1D	Au-	A-	1D	Au-	1A	Au-	1d	Au-
*	*	*	*lig	*	*	*	*	*
1AA	-di	-ve	1C	-di	1c	.	1e	-di
=2-	=2-	=2-	=2-	=2-	=2-	=2-	=2-	=2-
*	*ij	*ij	*	*	*	*	*	*
2A\	au-	A-	1D	.	4F/	-di	2d\	.
.	.	.	.	.	4G/	.	.	.
2F\	.	.	.	.	4A/	.	1f	fi-
.	.	.	.	.	4B-/	.	.	.
*	*	*	*Xlig	*	*	*	*	*
*	*	*	*lig	*	*	*	*	*
2G\	-di	.	1C	.	4c/	.	.	.
.	.	.	.	.	4G/	.	.	.
*	*Xij	*	*	*	*	*	*	*
1A\	fi-	.	.	.	1c\	.	2e\	-li-
=3-	=3-	=3-	=3-	=3-	=3-	=3-	=3-	=3-
.	.	.	1AA	.	.	.	1c	-a
4G\	.	.	.	.	4B-/	.	.	.
4F\	.	.	.	.	4A/	.	.	.
*	*	*	*Xlig	*	*	*	*	*
*	*	*	*lig	*	*	*	*	*
1E	-li-	.	1C	fi-	1G	.	2r	.
.	.	.	.	.	.	.	2e\	au-
=4-	=4-	=4-	=4-	=4-	=4-	=4-	=4-	=4-
*	*	*	*	*	*custos:F	*	*	*
2D/	-a	.	1D	.	2F/	.	2.f\	-di
!	!	!	!	!	!LO:LB:g=original	!	!	!
1BB-	fi-	.	.	.	2.F/	fi-	.	.
.	.	.	.	.	.	.	4e\	.
*	*	*	*Xlig	*	*	*	*	*
*	*	*	*lig	*	*	*	*	*
.	.	.	1F	-li-	.	.	2d/	.
.	.	.	.	.	4G/	.	.	.
*custos:BB-	*	*	*	*	*	*	*	*
2AA/	-li-	-ve	.	.	2A/	.	2c/	.
*	*	*Xij	*	*	*	*	*	*
!LO:PB:g=original	!	!	!	!	!	!	!	!
=5-	=5-	=5-	=5-	=5-	=5-	=5-	=5-	=5-
2BB-/	-a	Ma-	1D	.	2F/	.	1.d	fi-
4BB-/	et	.	.	.	2B-\	.	.	.
4C/	.	.	.	.	.	.	.	.
*	*	*	*Xlig	*	*	*	*	*
4D/	.	.	1D	-a	2A/	.	.	.
4E/	.	.	.	.	.	.	.	.
*	*	*	*	*	*	*	*custos:c	*
1F\	.	.	.	.	2F/	-li-	2B-/	-li-
!	!	!	!	!	!	!	!LO:LB:g=original	!
=6-	=6-	=6-	=6-	=6-	=6-	=6-	=6-	=6-
*	*	*	*lig	*	*	*	*	*
.	.	.	1C	et	1G	-a	2c/	-a
!LO:SIC:v:l:s=vi-:verse 1	!	!	!	!	!	!	!	!
2E\	ui-	-ri-	.	.	.	.	2c/	et
!	!	!	!	!	!	!	!LO:SIC:v:l:s=vi-	!
1F	-de	-a	1D	.	2r	.	2.A/	ui-
.	.	.	.	.	2F/	et	.	.
.	.	.	.	.	.	.	4G/	.
*	*	*	*Xlig	*	*	*	*	*
=7-	=7-	=7-	=7-	=7-	=7-	=7-	=7-	=7-
*	*ij	*ij	*	*	*	*	*	*
!	!	!	!	!	!LO:SIC:v:l:s=vi-	!	!	!
2.FF/	et	Ma-	1F	.	2.A/	ui-	2F/	.
.	.	.	.	.	.	.	2.f\	.
4GG/	.	.	.	.	4B-\	.	.	.
*	*	*	*lig	*	*	*	*	*
!	!	!	!LO:TX:t=P:problem=poprawka wysokości	!	!	!	!	!
!	!	!	!LO:SIC:v:l:s=vi-	!	!	!	!	!
2AA/	.	.	1F	ui-	2c\	.	.	.
.	.	.	.	.	.	.	4e\	.
2BB-/	.	.	.	.	2F/	-de	1d\	.
=8-	=8-	=8-	=8-	=8-	=8-	=8-	=8-	=8-
*	*	*	*	*	*	*ij	*	*
!LO:SIC:v:l:s=vi-:verse 1	!	!	!LO:TX:t=P:problem=poprawka wysokości	!	!	!	!	!
2GG/	ui-	.	1E	.	2B-/	et	.	.
!	!	!	!	!	!LO:SIC:v:l:s=vi-	!	!	!
2AA/	.	.	.	.	1A	ui-	2c/	.
*	*	*	*Xlig	*	*	*	*	*
0BB-	.	.	1D	.	.	.	1.d	.
.	.	.	.	.	4G/	.	.	.
*	*	*	*	*	*custos:G	*	*	*
.	.	.	.	.	4F/	.	.	.
!	!	!	!	!	!LO:PB:g=original	!	!	!
=9-	=9-	=9-	=9-	=9-	=9-	=9-	=9-	=9-
*	*	*	*lig	*	*	*	*	*
.	.	.	1D	-de	1G	.	.	.
.	.	.	.	.	.	.	4c/	.
.	.	.	.	.	.	.	4B-/	.
*	*	*	*custos:F	*	*	*	*	*
2AA/	-de	.	1E	.	2A/	.	1c	.
*	*Xij	*	*	*	*	*	*	*
2C/	et	-ri-	.	.	2G/	.	.	.
*	*	*	*Xlig	*	*	*	*	*
=10-	=10-	=10-	=10-	=10-	=10-	=10-	=10-	=10-
*	*	*	*lig	*	*	*	*	*
*custos:F	*	*	*	*	*	*	*	*
!	!	!	!LO:PB:g=original	!	!	!	!	!
2D/	in-	.	1F	.	2F/	.	1A	-de,
!LO:LB:g=original	!	!	!	!	!	!	!	!
1F	-cli-	-a	.	.	2D/	.	.	.
*	*	*Xij	*	*	*	*	*	*
.	.	.	1G	.	2C/	-de	2r	.
2E\	.	gra-	.	.	1c\	et	2c/	et
*	*	*	*Xlig	*	*	*	*	*
=11-	=11-	=11-	=11-	=11-	=11-	=11-	=11-	=11-
*	*	*	*lig	*	*	*	*	*
2.F\	.	.	1D	.	.	.	2d/	.
.	.	.	.	.	2B-\	.	1f	in-
4G\	.	.	.	.	.	.	.	.
!	!	!	!	!	!LO:SIC:v:l:s=vi-	!	!	!
2A\	.	.	1C	.	0c	ui-	.	.
4G\	.	.	.	.	.	.	4e\	-cli-
*	*	*	*	*	*	*	*custos:e	*
4F\	.	.	.	.	.	.	4d\	.
*	*	*	*Xlig	*	*	*	*	*
=12-	=12-	=12-	=12-	=12-	=12-	=12-	=12-	=12-
!	!	!	!	!	!	!	!LO:PB:g=original	!
1G	.	-ti-	1C	et	.	.	1e	-na
1F	-na	-a	1D	in-	1A	-de	2f\	.
*	*	*	*	*	*	*	*	*ij
.	.	.	.	.	.	.	2F/	et
=13-	=13-	=13-	=13-	=13-	=13-	=13-	=13-	=13-
*	*	*	*lig	*	*	*Xij	*	*
1FF	et	gra-	1C	-cli-	1A	et	2F/	in-
.	.	.	.	.	.	.	1c	-cli-
2FF/	in-	-ti-	1F	.	2A/	in-	.	.
1BB-/	-cli-	-a	.	.	1d\	-cli-	2B-/	-na
*	*	*	*Xlig	*	*	*	*	*Xij
=14-	=14-	=14-	=14-	=14-	=14-	=14-	=14-	=14-
.	.	.	1F	-na	.	.	2B-/	au-
2AA/	-na	.	.	.	2c\	-na	2c/	.
2BB-/	au-	.	1F	au-	2B-\	.	2d/	-rem
2C/	-re(m)	.	.	.	1A\	au-	1c\	tu-
=15-	=15-	=15-	=15-	=15-	=15-	=15-	=15-	=15-
*	*	*	*lig	*	*	*	*	*
1D	tu-	ple-	1F	-re(m)	.	.	.	.
.	.	.	.	.	4G/	-rem	2B-/	.
*	*	*	*	*	*custos:G	*	*	*
.	.	.	.	.	4F/	.	.	.
!	!	!	!	!	!LO:LB:g=original	!	!	!
1C	-a(m),	-na	1E	.	2G/	.	4c/	.
.	.	.	.	.	.	.	4d/	.
.	.	.	.	.	1c\	tu-	4e/	.
.	.	.	.	.	.	.	4c/	.
*	*	*	*Xlig	*	*	*	*	*
=16-	=16-	=16-	=16-	=16-	=16-	=16-	=16-	=16-
*	*	*	*lig	*	*	*	*	*
2r	.	.	1D	tu-	.	.	2d\	.
*custos:AA	*	*	*	*	*	*	*	*
!LO:SIC:v:s=2GG/	!	!	!	!	!	!	!	!
2FF/	au-	gra-	.	.	2B-\	.	2.g\	.
!LO:LB:g=original	!	!	!	!	!	!	!	!
2AA/	-rem	.	1C	.	2.c\	.	.	.
.	.	.	.	.	.	.	4f\	.
*	*	*	*	*	*	*	*custos:e	*
2FF/	tu-	-ti-	.	.	.	.	1f\	.
.	.	.	.	.	8B-\L	.	.	.
.	.	.	.	.	8A\J	.	.	.
*	*	*	*Xlig	*	*	*	*	*
=17-	=17-	=17-	=17-	=17-	=17-	=17-	=17-	=17-
*	*	*	*lig	*	*	*	*	*
1C	-a(m),	-a	1C	-am	1G	.	.	.
!	!	!	!	!	!	!	!LO:LB:g=original	!
.	.	.	.	.	.	.	2e\	.
2r	.	.	1D	.	2F/	.	2f\	-am
*	*ij	*ij	*	*	*	*	*	*
2BB-/	au-	gra-	.	.	2.B-\	.	1d\	.
*	*	*	*Xlig	*	*	*	*	*
=18-	=18-	=18-	=18-	=18-	=18-	=18-	=18-	=18-
*	*	*	*lig	*	*	*	*	*
2GG/	.	-ti-	1E	.	.	.	.	.
.	.	.	.	.	4A/	.	.	.
2AA/	-re(m)	-a	.	.	1A	.	2c/	.
1BB-	tu-	ple-	1D	.	.	.	2.d\	.
.	.	.	.	.	2G/	-am	.	.
.	.	.	.	.	.	.	8c/L	.
.	.	.	.	.	.	.	8B-/J	.
*	*	*	*Xlig	*	*	*	*	*
=19-	=19-	=19-	=19-	=19-	=19-	=19-	=19-	=19-
*	*	*	*	*	*	*	*lig	*
1AA	-a(m)	-na	1E	.	2A/	.	1c	.
.	.	.	.	.	1A	au-	.	.
*	*Xij	*Xij	*	*	*	*	*	*
1D	au-	ple-	1F	.	.	.	1d	.
.	.	.	.	.	2A/	-re(m)	.	.
*	*	*	*	*	*	*	*Xlig	*
=20-	=20-	=20-	=20-	=20-	=20-	=20-	=20-	=20-
*	*	*	*lig	*	*	*	*	*
1GG	-re(m)	.	1G	.	1B-	tu-	2B-/	.
.	.	.	.	.	.	.	1d	.
1BB-	tu-	.	1D	.	1F	-a(m),	.	.
.	.	.	.	.	.	.	4c/	.
.	.	.	.	.	.	.	4B-/	.
*	*	*	*Xlig	*	*	*	*	*
=21-	=21-	=21-	=21-	=21-	=21-	=21-	=21-	=21-
*	*	*	*custos:C	*	*	*	*	*
1FF	-am,	-na	1C	.	2r	.	2A/	.
*	*	*	*	*	*custos:E	*	*	*
.	.	.	.	.	1F	qui-	2c/	qui-
!	!	!	!LO:LB:g=original	!	!	!	!	!
2r	.	.	1C	qui-	.	.	2A/	-a
2C/	qui-	gra-	.	.	2E/	-a	2G/	con-
=22-	=22-	=22-	=22-	=22-	=22-	=22-	=22-	=22-
2AA/	-a	-ti-	1C	-a	1F	con-	1.c	-cu-
2FF/	con-	.	.	.	.	.	.	.
*	*	*	*lig	*	*	*	*	*
2C/	-cu-	-a	1E	con-	1G	-cu-	.	.
2C/	-pi-	ple-	.	.	.	.	2c/	-pi-
=23-	=23-	=23-	=23-	=23-	=23-	=23-	=23-	=23-
*	*	*	*	*	*	*	*custos:d	*
!LO:SIC:v:l:s=-vit:verse 1	!	!	!	!	!	!	!LO:SIC:v:l:s=-vit	!
1FF	-uit	-na	1F	.	0A	-pi-	1c	-uit
*	*	*	*Xlig	*	*	*	*	*
*custos:F	*	*	*	*	*	*	*	*
!	!	!	!	!	!	!	!LO:LB:g=original	!
2r	.	.	1D	-cu-	.	.	1d	Rex,
*	*	*ij	*	*	*	*	*	*
!LO:LB:g=original	!	!	!	!	!	!	!	!
2F\	qui-	gra-	.	.	.	.	.	.
=24-	=24-	=24-	=24-	=24-	=24-	=24-	=24-	=24-
!	!	!	!	!	!LO:SIC:v:l:s=-vit	!	!	!
2D/	-a	-ti-	1D	-pi-	0F	-uit	2r	.
4BB-/	con-	-a	.	.	.	.	2f\	qui-
4C/	.	.	.	.	.	.	.	.
*	*	*	*lig	*	*	*	*	*
!	!	!	!LO:SIC:v:l:s=-vit	!	!	!	!	!
4D/	.	.	1D	-uit	.	.	2d/	-a
4E/	.	.	.	.	.	.	.	.
1F\	.	ple-	.	.	.	.	2B-/	con-
=25-	=25-	=25-	=25-	=25-	=25-	=25-	=25-	=25-
.	.	.	1C	.	1G	Rex,	2c/	-cu-
2E\	-cu-	-na	.	.	.	.	2c/	-pi-
*	*	*	*Xlig	*	*	*	*	*
*	*	*	*lig	*	*	*ij	*	*
!	!	!	!	!	!	!	!LO:SIC:v:l:s=-vit	!
2.F\	-pi-	gra-	1D	.	2r	.	2A/	-uit
.	.	.	.	.	2F/	qui-	4B-/	Rex
4E\	.	-ti-	.	.	.	.	4c/	.
=26-	=26-	=26-	=26-	=26-	=26-	=26-	=26-	=26-
1D	.	-a	1F	.	2A/	-a	4d\	.
.	.	.	.	.	.	.	4e\	.
.	.	.	.	.	2B-\	.	1f	.
*	*	*	*Xlig	*	*	*	*	*
!LO:SIC:v:l:s=-vit,:verse 1	!	!	!	!	!	!	!	!
1C	-uit,	ple-	1G	.	1c	con-	.	.
.	.	.	.	.	.	.	2e\	.
=27-	=27-	=27-	=27-	=27-	=27-	=27-	=27-	=27-
*lig	*	*	*lig	*	*	*	*	*
1D	Rex	.	1F	Rex	2B-\	-cu-	1d	.
.	.	.	.	.	1A	-pi-	.	.
1E	.	.	1E	.	.	.	2r	.
!	!	!	!	!	!LO:SIC:v:l:s=-vit	!	!	!
.	.	.	.	.	2G/	-uit	2c/	ſpe-
*Xlig	*	*	*Xlig	*	*	*	*	*
=28-	=28-	=28-	=28-	=28-	=28-	=28-	=28-	=28-
1D	.	-na	1F	.	1A	Rex	2d\	-ci-
.	.	.	.	.	.	.	1f	.
*	*	*Xij	*lig	*	*	*Xij	*	*
2r	.	.	1G	.	2B-\	.	.	.
*	*	*	*	*	*	*	*custos:d	*
2C/	ſpe-	Do-	.	.	2c\	.	2e\	-em
=29-	=29-	=29-	=29-	=29-	=29-	=29-	=29-	=29-
*	*	*	*	*	*custos:G	*	*	*
!	!	!	!	!	!	!	!LO:LB:g=original	!
2D/	.	.	1F	.	1A	.	2d\	.
1F	-ci-	.	.	.	.	.	2.d\	tu-
*	*	*	*Xlig	*	*	*	*	*
*	*	*	*lig	*	*	*	*	*
!	!	!	!	!	!LO:LB:g=original	!	!	!
.	.	.	1C	ſpe-	1G	.	.	.
.	.	.	.	.	.	.	4c/	.
*custos:F	*	*	*	*	*	*	*	*
2E\	-em	-mi-	.	.	.	.	1c\	.
=30-	=30-	=30-	=30-	=30-	=30-	=30-	=30-	=30-
!LO:PB:g=original	!	!	!	!	!	!	!	!
1.F	tu-	-nus	1D	.	2r	.	.	.
.	.	.	.	.	2F/	ſpe-	2B-/	.
*	*	*	*Xlig	*	*	*	*	*
*	*	*	*lig	*	*	*	*	*
.	.	.	1C	-ci-	2A/	-ci-	1c	-am,
2E/	.	.	.	.	1c\	-em	.	.
=31-	=31-	=31-	=31-	=31-	=31-	=31-	=31-	=31-
1D	.	.	1F	.	.	.	2r	.
*	*	*	*	*	*	*	*	*ij
.	.	.	.	.	2B-\	tu-	2d\	ſpe-
*	*	*	*Xlig	*	*	*	*	*
*	*	*	*lig	*	*	*	*	*
1C	.	te-	1E	-em	2.c\	-am,	2e\	.
.	.	.	.	.	.	.	2.g\	-ci-
.	.	.	.	.	4B-\	.	.	.
=32-	=32-	=32-	=32-	=32-	=32-	=32-	=32-	=32-
*lig	*	*	*	*	*	*	*	*
1D	.	-cu(m)	1F	.	2A\	.	.	.
.	.	.	.	.	.	.	4f\	-em
.	.	.	.	.	2B-\	.	1f	tu-
*	*	*	*Xlig	*	*	*	*	*
*	*	*	*lig	*	*	*ij	*	*
1C	.	.	1G	.	1c	ſpe-	.	.
.	.	.	.	.	.	.	2e\	.
*Xlig	*	*	*	*	*	*	*	*
=33-	=33-	=33-	=33-	=33-	=33-	=33-	=33-	=33-
*	*	*	*custos:F	*	*	*	*	*
2FF/	-am	.	1F	.	2A\	.	2f\	-am
*	*ij	*	*	*	*	*	*	*Xij
2BB-/	ſpe-	Do-	.	.	2B-\	.	2d\	ſpe-
*	*	*	*Xlig	*	*	*	*	*
!	!	!	!LO:LB:g=original	!	!	!	!	!
2AA/	-ci-	.	1F	tu-	2c\	-ci-	2c/	-ci-
2BB-/	-em	-mi-	.	.	2B-\	-em	2d\	-em
=34-	=34-	=34-	=34-	=34-	=34-	=34-	=34-	=34-
2.C/	tu-	-nus	1E	.	2.G/	tu-	2.e\	tu-
*	*	*	*	*	*	*	*custos:g	*
!LO:SIC:v:s=4AA/	!	!	!	!	!	!	!	!
4BB-/	.	.	.	.	4A/	.	4f\	.
*	*	*	*	*	*custos:A	*	*	*
!LO:LB:g=original	!	!	!	!	!	!	!LO:PB:g=original	!
2GG/	.	te-	1D	.	2B-/	.	2g\	.
!	!	!	!	!	!LO:PB:g=original	!	!	!
2AA/	.	.	.	.	1A\	.	2.f\	.
=35-	=35-	=35-	=35-	=35-	=35-	=35-	=35-	=35-
*lig	*	*	*lig	*	*	*	*	*
1BB-	.	.	1D	-am	.	.	.	.
.	.	.	.	.	.	.	4e\	.
.	.	.	.	.	2G/	-am	1d	.
*	*	*	*	*	*	*Xij	*	*
1AA	.	.	1E	.	0A	tu-	.	.
.	.	.	.	.	.	.	2c/	-am
*Xlig	*	*	*Xlig	*	*	*	*	*
=36-	=36-	=36-	=36-	=36-	=36-	=36-	=36-	=36-
*	*	*	*lig	*	*	*	*	*
*custos:C	*	*	*	*	*	*	*	*
0D;l	-am	-cu(m)	1F	.	.	.	0d;l	.
.	.	.	1D;l	.	1A;l	-am,	.	.
*	*Xij	*	*Xlig	*	*	*	*	*
=37-	=37-	=37-	=37-	=37-	=37-	=37-	=37-	=37-
!LO:LB:g=original	!	!	!	!	!	!	!	!
1C	Vul-	Be-	1C	Vul-	1G	Vul-	1c	Vul-
1GG	-tu(m)	-ne-	1D	-tu(m)	2G/	-tu(m)	2B-/	-tu(m)
.	.	.	.	.	2G/	tu-	1d\	tu-
=38-	=38-	=38-	=38-	=38-	=38-	=38-	=38-	=38-
1BB-	tu-	-di-	1D	tu-	2F/	-u(m)	.	.
.	.	.	.	.	4F/	de-	4c/	.
.	.	.	.	.	4G/	.	4B-/	-um
2FF/	-u(m)	-cta	0F	-u(m)	4A/	.	2c/	.
.	.	.	.	.	4B-/	.	.	.
*	*	*ij	*	*	*	*	*	*
2FF/	de-	be-	.	.	2c\	.	2A/	de-
=39-	=39-	=39-	=39-	=39-	=39-	=39-	=39-	=39-
*	*	*	*	*	*custos:c	*	*	*
2BB-/	-pre-	-ne-	.	.	2d\	-pre-	2B-/	-pre-
!	!	!	!	!	!LO:LB:g=original	!	!	!
2AA/	-ca-	-di-	.	.	2c\	-ca-	2c/	-ca-
*	*	*	*	*	*	*	*custos:c	*
0BB-	-bun-	-cta	1D	de-	0B-	-bun-	0d	-bu(n)-
*	*	*Xij	*	*	*	*	*	*
=40-	=40-	=40-	=40-	=40-	=40-	=40-	=40-	=40-
.	.	.	1D	-pre-	.	.	.	.
*	*	*	*lig	*	*	*	*	*
!	!	!	!	!	!	!	!LO:LB:g=original	!
1FF	-tur,	tu	1F	-ca-	2A/	-t(ur)	1c	-tur
.	.	.	.	.	2A/	de-	.	.
=41-	=41-	=41-	=41-	=41-	=41-	=41-	=41-	=41-
1C	de-	be-	1E	.	2.G/	-pre-	1c	de-
.	.	.	.	.	4A/	.	.	.
*	*	*	*Xlig	*	*	*	*	*
2BB-/	-pre-	-ne-	1F	-bun-	2B-\	.	2d\	-pre-
2AA/	.	-dic-	.	.	2c\	-ca-	2c/	-ca-
=42-	=42-	=42-	=42-	=42-	=42-	=42-	=42-	=42-
*	*	*	*custos:D	*	*	*	*	*
2.BB-/	-ca-	-ta	1D	-tur	1F	-bun-	2d\	-bun-
.	.	.	.	.	.	.	1d	-tur
4AA/	-bun-	.	.	.	.	.	.	.
*	*	*	*lig	*	*	*	*	*
!	!	!	!LO:LB:g=original	!	!	!	!	!
1GG	-tur	.	1D	om-	1G	-tur,	.	.
.	.	.	.	.	.	.	4c/	.
.	.	.	.	.	.	.	4B-/	.
=43-	=43-	=43-	=43-	=43-	=43-	=43-	=43-	=43-
*	*	*	*	*	*lig	*	*	*
1FF	.	.	1F	.	1A	om-	4A/	.
.	.	.	.	.	.	.	4B-/	.
.	.	.	.	.	.	.	1c	om-
*	*	*	*Xlig	*	*	*	*	*
*	*	*	*lig	*	*	*	*	*
*custos:AA	*	*	*	*	*	*	*	*
1GG	om-	.	1D	-nes	1G	.	.	.
.	.	.	.	.	.	.	2B-/	.
*	*	*	*	*	*Xlig	*	*	*
=44-	=44-	=44-	=44-	=44-	=44-	=44-	=44-	=44-
!LO:LB:g=original	!	!	!	!	!	!	!	!
2AA/	.	tu	1C	.	2E/	-nes	0c	-nes,
2FF/	.	in	.	.	2A/	di-	.	.
*	*	*	*Xlig	*	*	*	*	*
*	*	*	*lig	*	*	*	*	*
!	!	!	!	!	!LO:SIC:v:l:s=-vi-	!	!	!
1C	.	mu-	1E	di-	1G	-ui-	.	.
=45-	=45-	=45-	=45-	=45-	=45-	=45-	=45-	=45-
2FF/	-nes	-li-	1F	.	2A/	.	2r	.
1BB-	.	-e-	.	.	1B-	-tes	1d	di-
*	*	*	*Xlig	*	*	*	*	*
!	!	!	!LO:SIC:v:l:s=-vi-	!	!	!	!	!
.	.	.	1G	-ui-	.	.	.	.
*	*	*	*	*	*custos:A	*	*	*
!	!	!	!	!	!	!	!LO:SIC:v:l:s=-vi-	!
2GG/	di-	.	.	.	2B-\	ple-	2B-/	-ui-
=46-	=46-	=46-	=46-	=46-	=46-	=46-	=46-	=46-
*	*	*	*lig	*	*	*	*	*
!LO:SIC:v:l:s=-vi-:verse 1	!	!	!	!	!LO:LB:g=original	!	!	!
!	!	!	!	!	!LO:LB:g=original	!	!	!
2AA/	-ui-	.	1F	.	2A/	-bis,	2c/	-tes
*	*	*	*	*	*	*ij	*	*
2BB-/	-tes	.	.	.	2D/	ple-	2d/	ple-
*	*	*	*	*	*	*	*custos:c	*
1C	ple-	-ri-	1E	.	1G	.	2G/	-bis
*	*	*	*	*	*	*	*	*ij
!	!	!	!	!	!	!	!LO:LB:g=original	!
.	.	.	.	.	.	.	1c\	di-
*	*	*	*Xlig	*	*	*	*	*
=47-	=47-	=47-	=47-	=47-	=47-	=47-	=47-	=47-
*	*	*	*lig	*	*	*	*	*
1FF	-bis,	-b(us)	1C	-tes	1A	.	.	.
!	!	!	!	!	!	!	!LO:SIC:v:l:s=-vi-	!
.	.	.	.	.	.	.	2c/	-ui-
2r	.	.	1D	.	2F/	-bis	2A/	-tes
*	*	*ij	*	*	*	*Xij	*	*
2BB-/	di-	be-	.	.	2F/	di-	1B-/	ple-
*	*	*	*Xlig	*	*	*	*	*
=48-	=48-	=48-	=48-	=48-	=48-	=48-	=48-	=48-
!LO:SIC:v:l:s=-vi-:verse 1	!	!	!	!	!LO:SIC:v:l:s=-vi-	!	!	!
2GG/	-ui-	-ne-	1D	ple-	2G/	-ui-	.	.
2AA/	-tes	.	.	.	1F	-tes	1A	.
*	*	*	*lig	*	*	*	*	*
1BB-	ple-	-dic-	1D	-bis	.	.	.	.
.	.	.	.	.	4E/	.	2G/	.
.	.	.	.	.	4D/	.	.	.
=49-	=49-	=49-	=49-	=49-	=49-	=49-	=49-	=49-
2AA/	-bis,	-ta	1C	.	4E/	.	1A	-bis
.	.	.	.	.	4C/	.	.	.
*	*ij	*	*	*	*	*	*	*
2AA/	di-	tu	.	.	2c\	ple-	.	.
*	*	*	*Xlig	*	*	*	*	*
*	*	*	*lig	*	*	*	*	*
*custos:AA	*	*	*	*	*	*	*	*
!LO:SIC:v:l:s=-vi-:verse 1	!	!	!	!	!	!	!	!
2GG/	-ui-	in	1E	.	2B-\	.	2r	.
!LO:LB:g=original	!	!	!	!	!	!	!	!
2AA/	-tes	mu-	.	.	1A\	.	2c\	di-
=50-	=50-	=50-	=50-	=50-	=50-	=50-	=50-	=50-
!	!	!	!	!	!	!	!LO:SIC:v:l:s=-vi-	!
1BB-	ple-	-li-	1D	.	.	.	2d\	-ui-
.	.	.	.	.	2G/	.	2d\	-tes
*	*	*	*Xlig	*	*	*	*	*
*	*	*	*lig	*	*	*	*	*
2.AA/	.	-e-	1E	.	0A	-bis,	1c	ple-
4GG/	.	-ri-	.	.	.	.	.	.
=51-	=51-	=51-	=51-	=51-	=51-	=51-	=51-	=51-
2FF/	-bis	-b(us)	1F	.	.	.	1c	-bis
*	*Xij	*Xij	*	*	*	*	*	*Xij
1F	di-	et	.	.	.	.	.	.
*	*	*	*Xlig	*	*	*	*	*
*	*	*	*lig	*	*	*	*	*
.	.	.	1G	.	1r	.	2r	.
!LO:SIC:v:l:s=-vi-:verse 1	!	!	!	!	!	!	!	!
2E\	-ui-	be-	.	.	.	.	1c\	di-
=52-	=52-	=52-	=52-	=52-	=52-	=52-	=52-	=52-
*	*	*	*	*	*custos:F	*	*	*
1F	-tes	-ne-	1D	.	2r	.	.	.
*	*	*	*	*	*	*ij	*	*
!	!	!	!	!	!	!	!LO:SIC:v:l:s=-vi-	!
!	!	!	!	!	!LO:LB:g=original	!	!	!
.	.	.	.	.	1F	di-	2B-/	-ui-
*	*	*	*Xlig	*	*	*	*	*
1G	ple-	-dic-	1C	.	.	.	1c	-tes
!	!	!	!	!	!LO:SIC:v:l:s=-vi-	!	!	!
.	.	.	.	.	2E/	-ui-	.	.
=53-	=53-	=53-	=53-	=53-	=53-	=53-	=53-	=53-
*	*	*	*lig	*	*	*	*	*
1C	-bis,	-t(us)	1E	fi-	2G/	-tes	1c	ple-
.	.	.	.	.	2G/	ple-	.	.
*	*	*	*	*	*	*	*custos:B-	*
1D	fi-	.	1F	.	2F/	-bis	1A	-bis
*	*	*	*	*	*	*Xij	*	*
.	.	.	.	.	2A/	fi-	.	.
*	*	*	*Xlig	*	*	*	*	*
=54-	=54-	=54-	=54-	=54-	=54-	=54-	=54-	=54-
*	*	*ij	*	*	*	*	*	*
!	!	!	!	!	!	!	!LO:LB:g=original	!
2GG/	-li-	et	1D	-li-	2.G/	-li-	1B-	fi-
1GG	-e	be-	.	.	.	.	.	.
.	.	.	.	.	4A/	-e	.	.
*	*	*	*custos:D	*	*	*	*	*
.	.	.	1D	-e	2B-\	.	2G/	-li-
2FF/	.	-ne-	.	.	1A\	.	2A/	-e
=55-	=55-	=55-	=55-	=55-	=55-	=55-	=55-	=55-
*	*	*	*lig	*	*	*	*	*
!	!	!	!LO:PB:g=original	!	!	!	!	!
1GG	Re-	-dic-	1D	re-	.	.	1B-	Re-
.	.	.	.	.	2G/	Re-	.	.
1D	-gu(m)	-t(us)	1F	.	2A/	.	2A/	-gum
*	*	*	*	*	*	*	*	*ij
.	.	.	.	.	1F/	-gu(m)	2d\	fi-
*	*	*Xij	*Xlig	*	*	*	*	*
=56-	=56-	=56-	=56-	=56-	=56-	=56-	=56-	=56-
2r	.	.	1G	.	.	.	2B-/	-li-
*	*	*	*	*	*	*ij	*	*
2C/	fi-	fru-	.	.	2E/	fi-	1c	-e
*	*	*	*lig	*	*	*	*	*
*custos:BB-	*	*	*	*	*	*	*	*
2AA/	-li-	-ct(us)	1F	-gum	2F/	-li-	.	.
!LO:PB:g=original	!	!	!	!	!	!	!	!
2BB-/	.	ven-	.	.	2D/	.	2d\	Re-
=57-	=57-	=57-	=57-	=57-	=57-	=57-	=57-	=57-
*	*	*	*	*	*custos:A	*	*	*
1C	-e	-tris	1E	.	2G/	-e	2G/	-gum
*	*	*	*	*	*	*	*	*Xij
!	!	!	!	!	!LO:PB:g=original	!	!	!
.	.	.	.	.	2.A/	Re-	1c	Re-
*lig	*	*	*Xlig	*	*	*	*	*
1FF	Re-	tu-	1F	.	.	.	.	.
.	.	.	.	.	4G/	.	.	.
.	.	.	.	.	1F/	.	4B-/	.
.	.	.	.	.	.	.	4A/	.
=58-	=58-	=58-	=58-	=58-	=58-	=58-	=58-	=58-
*	*	*	*lig	*	*	*	*	*
1C	.	.	1G	.	.	.	1G	.
.	.	.	.	.	2E/	.	.	.
*Xlig	*	*	*	*	*	*	*	*
1FF	-gum,	-i	1F	.	2F/	-gu(m)	2A/	-gu(m);
*	*	*	*	*	*	*Xij	*	*
.	.	.	.	.	4C/	in	1c\	in
.	.	.	.	.	4D/	.	.	.
*	*	*	*Xlig	*	*	*	*	*
=59-	=59-	=59-	=59-	=59-	=59-	=59-	=59-	=59-
*	*	*ij	*lig	*	*	*	*	*
2r	.	.	1C	in	4E/	.	.	.
.	.	.	.	.	4F/	.	.	.
2C/	in	fruc-	.	.	1G	.	2G/	ho-
*	*	*	*	*	*	*	*custos:F	*
2GG/	ho-	-t(us)	1D	.	.	.	2B-/	-no-
!	!	!	!	!	!	!	!LO:PB:g=original	!
2BB-/	-no-	ven-	.	.	2D/	ho-	4F/	-re
.	.	.	.	.	.	.	4G/	.
*	*	*	*Xlig	*	*	*	*	*
=60-	=60-	=60-	=60-	=60-	=60-	=60-	=60-	=60-
*	*	*	*lig	*	*	*	*	*
2FF/	-re	-tris	1C	ho-	2F/	-no-	4A/	.
.	.	.	.	.	.	.	4B-/	.
2AA/	tu-	tu-	.	.	2E/	-re	1c	.
1GG	-o,	-i	1D	.	1G	tu-	.	.
.	.	.	.	.	.	.	2B-/	tu-
*	*	*	*Xlig	*	*	*	*	*
=61-	=61-	=61-	=61-	=61-	=61-	=61-	=61-	=61-
*	*	*	*lig	*	*lig	*	*	*
2r	.	.	1C	-no-	1G	-o,	1c	-o,
2G\	in	fru-	.	.	.	.	.	.
2D/	ho-	-ct(us)	1F	.	1A	.	2r	.
*	*	*	*	*	*	*	*	*ij
2F\	-no-	ven-	.	.	.	.	1c\	in
*	*	*	*Xlig	*	*Xlig	*	*	*
=62-	=62-	=62-	=62-	=62-	=62-	=62-	=62-	=62-
*	*	*	*lig	*	*	*ij	*	*
2C/	-re	-tris	1E	-re	2r	.	.	.
2E/	tu-	tu-	.	.	2G/	ho-	2G/	ho-
1D	-o,	-i	1F	.	2D/	-no-	2B-/	.
*	*	*	*	*	*custos:C	*	*	*
.	.	.	.	.	2F/	-re	2A/	.
*	*	*Xij	*Xlig	*	*	*	*	*
=63-	=63-	=63-	=63-	=63-	=63-	=63-	=63-	=63-
*	*	*	*lig	*	*	*	*	*
*custos:C	*	*	*	*	*	*	*	*
!	!	!	!	!	!LO:LB:g=original	!	!	!
2r	.	.	1G	.	1.C	tu-	1.c	-no-
!LO:LB:g=original	!	!	!	!	!	!	!	!
2C/	in-	fruc-	.	.	.	.	.	.
2AA/	-ho-	-t(us)	1F	.	.	.	.	.
2BB-/	-no-	ven-	.	.	2D/	.	2B-/	.
*	*	*	*Xlig	*	*	*	*	*
=64-	=64-	=64-	=64-	=64-	=64-	=64-	=64-	=64-
*	*	*	*lig	*	*	*	*	*
1FF	-re	-tris	1F	tu-	2C/	-o	1A	.
*	*	*	*	*	*	*Xij	*	*
.	.	.	.	.	1c	in	.	.
2r	.	.	1E	.	.	.	2G/	.
*	*	*ij	*	*	*	*	*	*
2C/	in	fruc-	.	.	2G/	ho-	2c\	.
*	*	*	*Xlig	*	*	*	*	*
=65-	=65-	=65-	=65-	=65-	=65-	=65-	=65-	=65-
*	*	*	*lig	*	*	*	*	*
2GG/	ho-	-t(us)	1D	.	2B-\	-no-	2d\	.
*	*	*	*	*	*	*	*custos:c	*
2BB-/	-no-	ven-	.	.	2F/	-re	1d	.
1AA	-re	-tris	1E	.	0A	tu-	.	.
!	!	!	!	!	!	!	!LO:LB:g=original	!
.	.	.	.	.	.	.	2c/	-re
*	*	*Xij	*Xlig	*	*	*	*	*Xij
=66-	=66-	=66-	=66-	=66-	=66-	=66-	=66-	=66-
*	*	*	*lig	*	*	*	*	*
1D	tu-	Tu-	1F	-o	.	.	1d	tu-
*	*	*	*custos:D	*	*	*	*	*
1GG;l	-o	-i.	1D;l	.	1G;l\	-o	1d;<l	-o;
*	*	*	*Xlig	*	*	*	*	*
=67-	=67-	=67-	=67-	=67-	=67-	=67-	=67-	=67-
*	*	*	*lig	*	*	*	*	*
!	!	!	!LO:LB:g=original	!	!	!	!	!
1.D	Ad-	Ec-	1D	Ad-	0A	Ad-	1r	.
.	.	.	1F	.	.	.	1.d	Ad-
2C/	-du-	-ce	.	.	.	.	.	.
*	*	*	*Xlig	*	*	*	*	*
=68-	=68-	=68-	=68-	=68-	=68-	=68-	=68-	=68-
2BB-/	.	Vir-	1F	-du-	2D/	-du-	.	.
2AA/	.	-go	.	.	2.F/	-cen-	2c/	-du-
*	*	*	*lig	*	*	*	*	*
*custos:FF	*	*	*	*	*	*	*	*
1GG	.	con-	1G	-cen-	.	.	2.B-/	-cen-
.	.	.	.	.	4E/	.	.	.
.	.	.	.	.	2E/	.	.	.
.	.	.	.	.	.	.	4c/	.
=69-	=69-	=69-	=69-	=69-	=69-	=69-	=69-	=69-
*lig	*	*	*	*	*	*	*	*
!LO:LB:g=original	!	!	!	!	!	!	!	!
1FF	-cen-	-ci-	1A	.	1F	.	4d\	.
.	.	.	.	.	.	.	4e\	.
.	.	.	.	.	.	.	1f	.
*	*	*	*Xlig	*	*	*	*	*
*	*	*	*	*	*custos:c	*	*	*
1C	.	-pi-	1G	.	2C/	-tur	.	.
*	*	*	*	*	*	*ij	*	*
!	!	!	!	!	!LO:LB:g=original	!	!	!
.	.	.	.	.	1c\	ad-	2e\	.
*Xlig	*	*	*	*	*	*	*	*
=70-	=70-	=70-	=70-	=70-	=70-	=70-	=70-	=70-
*	*	*	*lig	*	*	*	*	*
1FF	-t(ur)	-es	1A	.	.	.	2f\	-tur
.	.	.	.	.	2c\	-du-	2f\	Re-
*	*	*	*	*	*	*	*custos:f	*
2r	.	.	1D	.	1A	-cen-	2d/	-gi
!	!	!	!	!	!	!	!LO:LB:g=original	!
!	!	!	!	!	!	!	!LO:SIC:v:l:s=vir-	!
2F\	re-	ec-	.	.	.	.	1f\	uir-
*	*	*	*Xlig	*	*	*	*	*
=71-	=71-	=71-	=71-	=71-	=71-	=71-	=71-	=71-
2D/	-gi	-ce	1D	-tur	2A/	-tur	.	.
*	*	*	*	*	*	*Xij	*	*
2.F\	vir-	con-	.	.	2.A/	Re-	4e\	.
.	.	.	.	.	.	.	4d\	.
.	.	.	1F	re-	.	.	2c/	.
4E/	.	.	.	.	4G/	.	.	.
4D/	.	.	.	.	4F/	.	1d\	.
4C/	.	.	.	.	4E/	.	.	.
=72-	=72-	=72-	=72-	=72-	=72-	=72-	=72-	=72-
*	*	*	*lig	*	*	*	*	*
2BB-/	.	.	1F	-gi	2D/	.	.	.
2AA/	.	-ci-	.	.	1F	.	2c/	.
1GG	-gi-	-pi-	1G	.	.	.	1B-	-gi-
.	.	.	.	.	2E/	.	.	.
*	*	*	*Xlig	*	*	*	*	*
=73-	=73-	=73-	=73-	=73-	=73-	=73-	=73-	=73-
*	*	*	*lig	*	*	*	*	*
1FF	-nes,	-es	1A	.	2F/	-gi	2A/	-nes
.	.	.	.	.	2A\	.	2c/	Re-
2r	.	.	1G	.	2B-\	re-	2d\	.
2C/	Re-	con-	.	.	2c\	.	2e\	.
*	*	*	*Xlig	*	*	*	*	*
=74-	=74-	=74-	=74-	=74-	=74-	=74-	=74-	=74-
2D/	.	.	1F	.	2A\	.	2f\	.
2BB-/	.	-ci-	.	.	2B-\	-gi	1d	.
*	*	*	*lig	*	*	*	*	*
1C	.	-pi-	1E	.	2.G/	.	.	.
.	.	.	.	.	.	.	2c/	.
*	*	*	*	*	*custos:B-	*	*	*
.	.	.	.	.	4A/	.	.	.
=75-	=75-	=75-	=75-	=75-	=75-	=75-	=75-	=75-
*custos:D	*	*	*	*	*	*	*	*
!	!	!	!	!	!LO:LB:g=original	!	!	!
2GG/	-gi	-es	1D	.	2B-\	.	0d	-gi,
!LO:LB:g=original	!	!	!	!	!	!	!	!
!LO:SIC:v:l:s=vir-:verse 1	!	!	!	!	!	!	!	!
2D/	uir-	et	.	.	4A/	.	.	.
.	.	.	.	.	4G/	.	.	.
*	*	*	*Xlig	*	*	*	*	*
!	!	!	!LO:SIC:v:l:s=vir-	!	!	!	!	!
1F	.	pa-	1D	uir-	2A/	.	.	.
!	!	!	!	!	!LO:SIC:v:l:s=vir-	!	!	!
.	.	.	.	.	2A/	uir-	.	.
=76-	=76-	=76-	=76-	=76-	=76-	=76-	=76-	=76-
2F\	.	-ri-	1F	-gi-	1A	-gi-	2r	.
!	!	!	!	!	!	!	!LO:SIC:v:l:s=vir-	!
2D/	-gi-	-et	.	.	.	.	2d\	uir-
*lig	*	*	*	*	*	*	*	*
1D	-nes	fi-	1F	-nes	1A	-nes,	1f	-gi-
=77-	=77-	=77-	=77-	=77-	=77-	=77-	=77-	=77-
*	*	*	*	*	*	*	*custos:d	*
1F	.	.	1D	poſt	2r	.	2f\	-nes
!	!	!	!	!	!	!	!LO:LB:g=original	!
.	.	.	.	.	2A/	poſt	1d	poſt
*Xlig	*	*	*lig	*	*	*	*	*
2.BB-/	poſt	-li-	1D	e-	1B-	e-	.	.
.	.	.	.	.	.	.	2.f\	e-
4C/	.	-u(m)	.	.	.	.	.	.
=78-	=78-	=78-	=78-	=78-	=78-	=78-	=78-	=78-
*	*	*	*custos:D	*	*	*	*	*
1D	e-	.	1F	.	1A	-am	.	.
.	.	.	.	.	.	.	4e\	.
.	.	.	.	.	.	.	4d\	.
.	.	.	.	.	.	.	4c\	.
*	*	*	*Xlig	*	*	*	*	*
*	*	*ij	*lig	*	*	*ij	*	*
!	!	!	!LO:LB:g=original	!	!	!	!	!
1GG	-am,	pa-	1D	-am	1B-	poſt	2.d\	.
.	.	.	.	.	.	.	8c/L	.
.	.	.	.	.	.	.	8B-/J	.
=79-	=79-	=79-	=79-	=79-	=79-	=79-	=79-	=79-
*	*ij	*	*	*	*	*	*	*
2AA/	poſt	-ri-	1C	.	1c	e-	1A	.
2FF/	.	-et	.	.	.	.	.	.
*lig	*	*	*Xlig	*	*	*	*	*
*	*	*	*lig	*	*	*	*	*
1C	e-	fi-	1E	.	2c\	-am	2G/	-am
.	.	.	.	.	2G/	poſt	2c/	poſt
=80-	=80-	=80-	=80-	=80-	=80-	=80-	=80-	=80-
*	*	*	*	*	*lig	*	*lig	*
1BB-	.	.	1D	.	1B-	e-	1d	e-
*Xlig	*	*	*Xlig	*	*	*	*	*
1C	.	-li-	1E	.	1G	.	1c	.
*	*	*	*	*	*Xlig	*	*Xlig	*
=81-	=81-	=81-	=81-	=81-	=81-	=81-	=81-	=81-
*	*	*	*	*	*custos:B-	*	*	*
2FF/	-am	-u(m)	1F	.	2A/	.	2c/	-am
*	*	*	*	*	*	*	*	*ij
!	!	!	!	!	!LO:PB:g=original	!	!	!
2BB-/	poſt	pa-	.	.	1B-	-am	1d	poſt
*	*	*	*lig	*	*	*Xij	*	*
2GG/	e-	-ri-	1G	.	.	.	.	.
*custos:BB-	*	*	*	*	*	*	*	*
1C/	.	-et	.	.	2.G/	poſt	2c/	.
=82-	=82-	=82-	=82-	=82-	=82-	=82-	=82-	=82-
.	.	.	1D	.	.	.	1d	e-
.	.	.	.	.	4A/	.	.	.
!LO:PB:g=original	!	!	!	!	!	!	!	!
2BB-/	.	fi-	.	.	2B-/	.	.	.
*	*	*	*Xlig	*	*	*	*	*
*	*	*	*	*	*	*	*custos:f	*
2AA/	.	.	1C	.	2c\	.	2e\	.
!	!	!	!	!	!	!	!LO:PB:g=original	!
2FF/	.	-li-	.	.	2A/	e-	2f\	.
=83-	=83-	=83-	=83-	=83-	=83-	=83-	=83-	=83-
*	*	*	*lig	*	*	*	*	*
1C	.	-u(m)	1E	pro-	1G	.	4e\	.
.	.	.	.	.	.	.	4d\	.
.	.	.	.	.	.	.	4c/	.
.	.	.	.	.	.	.	4B-/	.
*	*	*Xij	*	*	*	*	*	*
2FF/	-am	et	1F	.	2A/	-am	2c/	-am
*	*Xij	*	*	*	*	*	*	*Xij
2FF/	pro-	Vo-	.	.	2A/	pro-	2c/	pro-
*	*	*	*Xlig	*	*	*	*	*
=84-	=84-	=84-	=84-	=84-	=84-	=84-	=84-	=84-
2BB-/	-xi-	-ca-	1D	-xi-	2F/	-xi-	2d\	-xi-
2BB-/	-me	-bi-	.	.	2F/	-me	2d\	-me
2.BB-/	e-	-tur	1D	-me	1B-	.	2.d\	e-
4C/	.	.	.	.	.	.	4e\	.
=85-	=85-	=85-	=85-	=85-	=85-	=85-	=85-	=85-
*	*	*	*lig	*	*	*	*	*
4D/	.	.	1D	e-	2.A/	e-	2.f\	.
4E\	.	.	.	.	.	.	.	.
2F\	.	.	.	.	.	.	.	.
.	.	.	.	.	4B-\	.	8e\L	.
.	.	.	.	.	.	.	8d\J	.
2G\	.	no-	1C	.	1c	.	4e\	.
.	.	.	.	.	.	.	4d\	.
2.A\	.	-men	.	.	.	.	4c/	.
.	.	.	.	.	.	.	4B-/	.
*	*	*	*Xlig	*	*	*	*	*
=86-	=86-	=86-	=86-	=86-	=86-	=86-	=86-	=86-
*	*	*	*lig	*	*	*	*	*
*	*	*	*	*	*	*	*custos:d	*
.	.	.	1D	.	2.F/	.	2A/	.
4G\	.	.	.	.	.	.	.	.
!	!	!	!	!	!	!	!LO:LB:g=original	!
4F\	.	e-	.	.	.	.	1d	.
*	*	*	*	*	*custos:A	*	*	*
4E/	.	.	.	.	4G/	.	.	.
!	!	!	!	!	!LO:LB:g=original	!	!	!
4D/	.	.	1F	.	1A	-ius,	.	.
*custos:F	*	*	*	*	*	*	*	*
4C/	.	.	.	.	.	.	.	.
!LO:LB:g=original	!	!	!	!	!	!	!	!
1F\	.	.	.	.	.	.	4c/	.
.	.	.	.	.	.	.	4B-/	.
*	*	*	*Xlig	*	*	*	*	*
=87-	=87-	=87-	=87-	=87-	=87-	=87-	=87-	=87-
.	.	.	1G	.	1r	.	2.c/	.
2E\	.	.	.	.	.	.	.	.
.	.	.	.	.	.	.	4B-/	.
*	*	*	*lig	*	*	*	*	*
1F	-ius	-ius	1F	-ius	2r	.	4c/	.
.	.	.	.	.	.	.	4F/	.
.	.	.	.	.	2A/	pro-	1f\	.
=88-	=88-	=88-	=88-	=88-	=88-	=88-	=88-	=88-
*lig	*	*	*	*	*	*	*	*
1C	of-	no-	1G	.	2G/	-xi-	.	.
.	.	.	.	.	1c	-me	2e\	-ius
*	*	*	*Xlig	*	*	*	*	*
1D	.	.	1F	.	.	.	1f	.
.	.	.	.	.	2B-\	.	.	.
*Xlig	*	*	*	*	*	*	*	*
=89-	=89-	=89-	=89-	=89-	=89-	=89-	=89-	=89-
*lig	*	*	*lig	*	*	*	*	*
1C	-fe-	-men	1C	of-	2.c\	e-	2r	.
.	.	.	.	.	.	.	2e\	of-
.	.	.	.	.	4B-\	.	.	.
*	*	*	*custos:C	*	*	*	*	*
1F	.	.	1D	.	2A/	.	2d\	-fe-
.	.	.	.	.	2B-\	-ius	1f\	-ren-
*Xlig	*	*	*Xlig	*	*	*	*	*
=90-	=90-	=90-	=90-	=90-	=90-	=90-	=90-	=90-
*	*	*	*lig	*	*	*	*	*
!	!	!	!LO:LB:g=original	!	!	!	!	!
1G	.	.	1C	-fe-	1c	of-	.	.
.	.	.	.	.	.	.	2e\	-tur
2F\	-ren-	e-	1F	.	2A/	-fe-	2c/	of-
2BB-/	-tur	-ius	.	.	2B-\	.	2d\	-fe-
*	*	*	*Xlig	*	*	*	*	*
=91-	=91-	=91-	=91-	=91-	=91-	=91-	=91-	=91-
2AA/	of-	E-	1F	-ren-	2c\	.	2c/	-ren-
2BB-/	-fe-	-ma-	.	.	2.d\	.	2B-/	-tur
*lig	*	*	*lig	*	*	*	*	*
*	*	*	*	*	*	*	*custos:G	*
1C	.	.	1E	-tur	.	.	2A/	ti-
.	.	.	.	.	4c\	.	.	.
!	!	!	!	!	!	!	!LO:LB:g=original	!
.	.	.	.	.	1c\	.	2G/	.
=92-	=92-	=92-	=92-	=92-	=92-	=92-	=92-	=92-
1D	.	.	1F	.	.	.	2F/	-bi
.	.	.	.	.	2B-\	-ren-	2f\	of-
*Xlig	*	*	*Xlig	*	*	*	*	*
*	*	*	*	*	*custos:B-	*	*	*
2C/	-ren-	.	1G	.	2c\	-tur	2e\	-fe-
!	!	!	!	!	!LO:LB:g=original	!	!	!
1GG/	-t(ur)	.	.	.	2.B-/	ti-	2d\	-ren-
=93-	=93-	=93-	=93-	=93-	=93-	=93-	=93-	=93-
.	.	.	1D	ti-	.	.	2g\	-tur-
.	.	.	.	.	4A/	.	.	.
2AA/	ti-	.	.	.	1A	.	2.f\	-ti-
*lig	*	*	*lig	*	*	*	*	*
1BB-	.	-nu-	1D	-bi	.	.	.	.
.	.	.	.	.	.	.	4e\	.
.	.	.	.	.	2G/	.	1d\	.
=94-	=94-	=94-	=94-	=94-	=94-	=94-	=94-	=94-
1AA	.	.	1E	.	0A	.	.	.
.	.	.	.	.	.	.	2c/	.
*Xlig	*	*	*Xlig	*	*	*	*	*
*	*	*	*lig	*	*	*	*	*
*custos:C	*	*	*	*	*	*	*	*
0.D;>l\	-bi,	-el.	1F	.	.	.	0.d;>l\	-bi
=95-	=95-	=95-	=95-	=95-	=95-	=95-	=95-	=95-
.	.	.	0D;l	.	0A;l	-bi	.	.
*	*	*	*Xlig	*	*	*	*	*
=96-	=96-	=96-	=96-	=96-	=96-	=96-	=96-	=96-
!LO:LB:g=original	!	!	!	!	!	!	!	!
1C	Ad-	.	1C	Ad-	1G	Ad-	1c	A-
2GG/	-du-	.	1D	-du-	2G/	-du-	2B-/	-du-
1BB-/	-cen-	.	.	.	2.F/	-cen-	1d\	-cen-
=97-	=97-	=97-	=97-	=97-	=97-	=97-	=97-	=97-
*	*	*	*lig	*	*	*	*	*
.	.	.	1F	-cen-	.	.	.	.
.	.	.	.	.	4G/	.	.	.
2AA/	.	.	.	.	2A/	.	2c/	.
*	*	*	*	*	*	*	*custos:d	*
2.GG/	.	.	1G	.	1B-	.	2B-/	.
!	!	!	!	!	!	!	!LO:LB:g=original	!
.	.	.	.	.	.	.	1d\	.
4AA/	.	.	.	.	.	.	.	.
*	*	*	*Xlig	*	*	*	*	*
=98-	=98-	=98-	=98-	=98-	=98-	=98-	=98-	=98-
1BB-	.	.	1D	-t(ur)	0F	-tur,	.	.
.	.	.	.	.	.	.	4c/	.
.	.	.	.	.	.	.	4B-/	.
1FF	-tur	.	1C	in	.	.	1A	.
=99-	=99-	=99-	=99-	=99-	=99-	=99-	=99-	=99-
*	*	*	*custos:F	*	*	*	*	*
1F	in	.	1D	lae-	2r	.	2A/	-tur
.	.	.	.	.	1A	in	1d	in
*	*	*	*lig	*	*	*	*	*
!	!	!	!LO:PB:g=original	!	!	!	!	!
1D	l(ae)-	.	1F	-ti-	.	.	.	.
.	.	.	.	.	2B-\	le-	1f\	l(ae)-
=100-	=100-	=100-	=100-	=100-	=100-	=100-	=100-	=100-
*	*	*	*	*	*custos:c	*	*	*
2.C/	-ti-	.	1G	.	2c\	-ti-	.	.
!	!	!	!	!	!LO:LB:g=original	!	!	!
.	.	.	.	.	2c\	-ci-	2e\	.
4BB-/	.	.	.	.	.	.	.	.
*	*	*	*Xlig	*	*	*	*	*
*	*	*	*lig	*	*	*	*	*
4GG/	.	.	1G	-ci-	1B-	-a	2.d\	.
4AA/	.	.	.	.	.	.	.	.
4BB-/	.	.	.	.	.	.	.	.
4C/	.	.	.	.	.	.	8c/L	.
.	.	.	.	.	.	.	8B-/J	.
=101-	=101-	=101-	=101-	=101-	=101-	=101-	=101-	=101-
1D	.	.	1F	.	2r	.	2A/	.
.	.	.	.	.	2A/	lae-	1d	-ti-
*	*	*	*Xlig	*	*	*	*	*
*	*	*	*lig	*	*	*	*	*
*custos:D	*	*	*	*	*	*	*	*
1AA	-ci-	.	1E	-a	2A/	-ti-	.	.
.	.	.	.	.	2A/	-ci-	2c/	-ci-
=102-	=102-	=102-	=102-	=102-	=102-	=102-	=102-	=102-
!LO:LB:g=original	!	!	!	!	!	!	!	!
2D/	-a	.	1D	.	2F/	-a	2d\	-a
1GG	et	.	.	.	1G	et	1B-	et
*	*	*	*Xlig	*	*	*	*	*
.	.	.	1D	et	.	.	.	.
2FF/	e-	.	.	.	2A/	e-	2A/	e-
=103-	=103-	=103-	=103-	=103-	=103-	=103-	=103-	=103-
1GG	-xul-	.	1D	e-	2B-\	-xul-	2G/	-xul-
.	.	.	.	.	2G/	-ta-	2B-/	-ta-
*	*	*	*	*	*	*	*custos:d	*
2.D\	-ta-	.	1F	-xul-	2F/	-ci-	2A/	-ci-
!	!	!	!	!	!	!	!LO:PB:g=original	!
.	.	.	.	.	1B-\	-o-	1d\	-o-
4C/	.	.	.	.	.	.	.	.
=104-	=104-	=104-	=104-	=104-	=104-	=104-	=104-	=104-
2BB-/	.	.	1F	-ta-	.	.	.	.
2AA/	-ci-	.	.	.	2c\	.	2c/	.
0BB-	-o-	.	1D	-ti-	0d	-ne	0B-	-ne
=105-	=105-	=105-	=105-	=105-	=105-	=105-	=105-	=105-
*	*	*	*lig	*	*	*	*	*
.	.	.	1D	-o-	.	.	.	.
*	*	*	*	*	*	*ij	*	*
1FF	-ne,	.	1F	.	2c\	et	2A/	Et
.	.	.	.	.	2A/	e-	2c/	e-
*	*	*	*Xlig	*	*	*	*	*
=106-	=106-	=106-	=106-	=106-	=106-	=106-	=106-	=106-
*	*ij	*	*lig	*	*	*	*	*
2r	.	.	1D	-ne	2B-/	.	2d/	-xul-
*	*	*	*	*	*custos:A	*	*	*
2GG/	et	.	.	.	2B-/	-xul-	2B-/	-ta-
!	!	!	!	!	!LO:PB:g=original	!	!	!
2AA/	ex-	.	1C	.	2A/	-ta-	0c	-ci-
2FF/	-ul-	.	.	.	2A/	-ci-	.	.
*	*	*	*Xlig	*	*	*	*	*
=107-	=107-	=107-	=107-	=107-	=107-	=107-	=107-	=107-
*	*	*	*lig	*	*	*	*	*
1C	-ta-	.	1E	.	1G	-o-	.	.
2D\	.	.	1F	.	1F	-ne	2A/	-o-
1F\	.	.	.	.	.	.	2.d/	-ne
*	*	*	*Xlig	*	*	*Xij	*	*
=108-	=108-	=108-	=108-	=108-	=108-	=108-	=108-	=108-
*	*	*	*lig	*	*	*	*	*
.	.	.	1G	.	2r	.	.	.
.	.	.	.	.	.	.	4c/	.
2E\	-ci-	.	.	.	2C/	ad-	1c	.
*custos:G	*	*	*	*	*	*	*	*
1F	-o-	.	1D	.	2D/	-du-	.	.
.	.	.	.	.	1F/	-ce(n)-	2B-/	.
*	*	*	*Xlig	*	*	*	*	*
=109-	=109-	=109-	=109-	=109-	=109-	=109-	=109-	=109-
!LO:PB:g=original	!	!	!	!	!	!	!	!
1G	.	.	1C	.	.	.	1c	.
.	.	.	.	.	2E/	-t(ur),	.	.
*	*	*	*lig	*	*	*	*	*
2C/	-ne	.	1E	ad-	2r	.	1c	ad-
*	*Xij	*	*	*	*	*ij	*	*
2C/	ad-	.	.	.	2G/	ad-	.	.
=110-	=110-	=110-	=110-	=110-	=110-	=110-	=110-	=110-
2D/	-du-	.	1F	.	2D/	-du-	2A/	-du-
2.BB-/	-cen-	.	.	.	1d	-ce(n)-	1B-	-cen-
*	*	*	*Xlig	*	*	*	*	*
.	.	.	1D	-du-	.	.	.	.
4C/	.	.	.	.	.	.	.	.
4D/	.	.	.	.	4c\	.	4A/	.
4E/	.	.	.	.	4B-\	.	4G/	.
=111-	=111-	=111-	=111-	=111-	=111-	=111-	=111-	=111-
*	*	*	*lig	*	*	*	*	*
*	*	*	*	*	*	*	*custos:f	*
4F\	.	.	1D	-cen-	1A	-t(ur)	2F/	-tur
4G\	.	.	.	.	.	.	.	.
!	!	!	!	!	!	!	!LO:LB:g=original	!
4A\	.	.	.	.	.	.	1f	ad-
4F\	.	.	.	.	.	.	.	.
*	*	*	*custos:D	*	*	*	*	*
1G	.	.	1C	.	2r	.	.	.
*	*	*	*	*	*	*Xij	*	*
.	.	.	.	.	1c\	ad-	2e\	-du-
*	*	*	*Xlig	*	*	*	*	*
=112-	=112-	=112-	=112-	=112-	=112-	=112-	=112-	=112-
*	*	*	*lig	*	*	*	*	*
!	!	!	!LO:LB:g=original	!	!	!	!	!
1F	-tur	.	1D	.	.	.	1d	-ce(n)-
.	.	.	.	.	2B-\	-du-	.	.
*	*	*	*	*	*custos:G	*	*	*
2r	.	.	1F	.	1A	-ce(n)-	0c	-t(ur)
*	*ij	*	*	*	*	*	*	*
1F\	ad-	.	.	.	.	.	.	.
*	*	*	*Xlig	*	*	*	*	*
=113-	=113-	=113-	=113-	=113-	=113-	=113-	=113-	=113-
*	*	*	*lig	*	*	*	*	*
!	!	!	!	!	!LO:LB:g=original	!	!	!
.	.	.	1G	.	1G	-tur,	.	.
2E/	-du-	.	.	.	.	.	.	.
1D	-cen-	.	1A	.	2r	.	2r	.
*	*	*	*	*	*	*ij	*	*
.	.	.	.	.	2F/	ad-	1f\	ad-
*	*	*	*Xlig	*	*	*	*	*
=114-	=114-	=114-	=114-	=114-	=114-	=114-	=114-	=114-
*	*	*	*lig	*	*	*	*	*
1C	-tur	.	1c	.	2.G/	-du-	.	.
.	.	.	.	.	.	.	2e\	-du-
.	.	.	.	.	4A/	.	.	.
*custos:C	*	*	*	*	*	*	*	*
2r	.	.	1G	.	2B-\	-cen-	2d/	-cen-
*	*Xij	*	*	*	*	*	*	*
!LO:LB:g=original	!	!	!	!	!	!	!	!
2C/	in	.	.	.	2c\	.	2c/	-t(ur)
*	*	*	*Xlig	*	*	*	*	*
=115-	=115-	=115-	=115-	=115-	=115-	=115-	=115-	=115-
2D/	tem-	.	1F	-tur	2A/	-tur	2f\	in
*	*	*	*	*	*	*Xij	*	*
2BB-/	.	.	.	.	2B-\	in	2.d/	tem-
*	*	*	*lig	*	*	*	*	*
1D	-plu(m)	.	1F	in	2.A/	tem-	.	.
.	.	.	.	.	.	.	4e\	.
.	.	.	.	.	.	.	1f\	.
.	.	.	.	.	4B-\	.	.	.
=116-	=116-	=116-	=116-	=116-	=116-	=116-	=116-	=116-
1C	Re-	.	1G	.	1c	-plum	.	.
.	.	.	.	.	.	.	2e\	.
*	*	*	*Xlig	*	*	*	*	*
1FF	-gis,	.	1F	.	0A	.	1.f	.
=117-	=117-	=117-	=117-	=117-	=117-	=117-	=117-	=117-
1r	.	.	1D	tem-	.	.	.	.
.	.	.	.	.	.	.	4e\	.
.	.	.	.	.	.	.	4d\	.
*	*ij	*	*lig	*	*	*	*	*
2r	.	.	1E	-plu(m)	1G	Re-	2c/	.
2C/	in	.	.	.	.	.	1c\	-plu(m)
=118-	=118-	=118-	=118-	=118-	=118-	=118-	=118-	=118-
2AA/	.	.	1F	.	2A/	.	.	.
1BB-	tem-	.	.	.	1F	.	1d	Re-
*	*	*	*Xlig	*	*	*	*	*
*	*	*	*lig	*	*	*	*	*
.	.	.	1G	Re-	.	.	.	.
*	*	*	*	*	*	*	*custos:A	*
2C/	-plu(m)	.	.	.	2E/	.	2c/	.
=119-	=119-	=119-	=119-	=119-	=119-	=119-	=119-	=119-
!	!	!	!	!	!	!	!LO:LB:g=original	!
2FF/	Re-	.	1F	.	2F/	-gis	2A/	-gis
*	*	*	*	*	*custos:d	*	*	*
2FF/	-gis,	.	.	.	2c\	in	2A/	in
*	*Xij	*	*Xlig	*	*	*	*	*
!	!	!	!	!	!LO:LB:g=original	!	!	!
1.BB-	in	.	1D	.	1.d	tem-	1.B-	tem-
=120-	=120-	=120-	=120-	=120-	=120-	=120-	=120-	=120-
.	.	.	0F	.	.	.	.	.
2AA/	.	.	.	.	2c\	.	2c/	.
1BB-	tem-	.	.	.	1B-	.	1d	-plu(m)
=121-	=121-	=121-	=121-	=121-	=121-	=121-	=121-	=121-
*	*	*	*lig	*	*	*	*	*
2FF/	-plu(m)	.	1A	.	2A/	-plum	2c/	Re-
*custos:E	*	*	*	*	*	*	*	*
1F	Re-	.	.	.	2F/	.	2.c/	-gis
.	.	.	1G	.	1c	Re-	.	.
.	.	.	.	.	.	.	4d\	.
*	*	*	*	*	*	*	*	*ij
!LO:LB:g=original	!	!	!	!	!	!	!	!
2E/	.	.	.	.	.	.	2e\	tem-
*	*	*	*Xlig	*	*	*	*	*
=122-	=122-	=122-	=122-	=122-	=122-	=122-	=122-	=122-
*	*	*	*lig	*	*	*	*	*
2D/	.	.	1A	.	2F/	-gis	2f\	.
2C/	.	.	.	.	2c\	.	2.e\	.
1D	.	.	1F	.	1A	.	.	.
.	.	.	.	.	.	.	4d\	-plum
.	.	.	.	.	.	.	1d\	Re-
*	*	*	*Xlig	*	*	*	*	*
=123-	=123-	=123-	=123-	=123-	=123-	=123-	=123-	=123-
*	*	*	*lig	*	*	*ij	*	*
1AA	-gis,	.	1E	.	2r	.	.	.
.	.	.	.	.	1A	in	2c/	.
*	*	*	*custos:D	*	*	*	*	*
2r	.	.	1D	.	.	.	1d	-gis
1A\	.	.	.	.	2F/	tem-	.	.
*	*	*	*Xlig	*	*	*	*	*Xij
=124-	=124-	=124-	=124-	=124-	=124-	=124-	=124-	=124-
*	*	*	*lig	*	*	*	*	*
!	!	!	!LO:LB:g=original	!	!	!	!	!
.	.	.	1D	-gis	2A/	.	2r	.
2F\	in	.	.	.	2B-\	.	1f	in
2G\	tem-	.	1C	.	1c	-plum	.	.
*	*	*	*	*	*	*	*custos:f	*
2.A\	.	.	.	.	.	.	2e\	tem-
*	*	*	*Xlig	*	*	*	*	*
=125-	=125-	=125-	=125-	=125-	=125-	=125-	=125-	=125-
!	!	!	!	!	!	!	!LO:LB:g=original	!
.	.	.	1D	.	2.A/	Re-	1f	-plu(m)
4G\	-plum	.	.	.	.	.	.	.
4F\	.	.	.	.	.	.	.	.
4E\	.	.	.	.	4G/	.	.	.
2.D/	Re-	.	0F	.	4F/	.	2.f\	Re-
*	*	*	*	*	*custos:D	*	*	*
.	.	.	.	.	4E/	.	.	.
!	!	!	!	!	!LO:LB:g=original	!	!	!
.	.	.	.	.	2.D/	-gis	.	.
4C/	.	.	.	.	.	.	4e\	.
=126-	=126-	=126-	=126-	=126-	=126-	=126-	=126-	=126-
2BB-/	.	.	.	.	.	.	2d/	.
.	.	.	.	.	4E/	.	.	.
2AA/	.	.	.	.	1F	in	2c/	.
*	*	*	*lig	*	*	*	*	*
1GG	.	.	1G	.	.	.	1B-	.
.	.	.	.	.	2E/	.	.	.
=127-	=127-	=127-	=127-	=127-	=127-	=127-	=127-	=127-
1FF	-gis,	.	1A	.	2F/	.	2A/	.
.	.	.	.	.	2A/	tem-	2c/	.
*	*ij	*	*Xlig	*	*	*	*	*
2r	.	.	1G	.	2B-\	.	2d\	.
2C/	in	.	.	.	2c\	-plum	2e\	.
=128-	=128-	=128-	=128-	=128-	=128-	=128-	=128-	=128-
2D/	tem-	.	0F	.	2A\	Re-	2.f\	.
*custos:D	*	*	*	*	*	*	*	*
2BB-/	-plum	.	.	.	2B-\	.	.	.
.	.	.	.	.	.	.	4e\	.
!LO:LB:g=original	!	!	!	!	!	!	!	!
2.D/	Re-	.	.	.	2A\	.	1d	.
.	.	.	.	.	2.B-\	.	.	.
4C/	.	.	.	.	.	.	.	.
=129-	=129-	=129-	=129-	=129-	=129-	=129-	=129-	=129-
*	*	*	*lig	*	*	*	*	*
4AA/	.	.	1E	.	.	.	1c	-gis
4BB-/	.	.	.	.	4A\	.	.	.
2C/	.	.	.	.	1A	.	.	.
1BB-	.	.	1D	.	.	.	2r	.
.	.	.	.	.	2G/	.	1d\	Re-
*	*	*	*Xlig	*	*	*	*	*
=130-	=130-	=130-	=130-	=130-	=130-	=130-	=130-	=130-
*lig	*	*	*lig	*	*	*	*	*
1AA	.	.	1E	.	1A	-gis	.	.
.	.	.	.	.	.	.	2c\	-gis
1D	.	.	1F	.	2r	.	0d	.
*	*	*	*	*	*	*Xij	*	*
*	*	*	*	*	*custos:B-	*	*	*
.	.	.	.	.	2F/	in	.	.
*Xlig	*	*	*Xlig	*	*	*	*	*
=131-	=131-	=131-	=131-	=131-	=131-	=131-	=131-	=131-
!	!	!	!	!	!LO:PB:g=original	!	!	!
2GG/	-gis	.	000D;l/	.	2.B-/	tem-	.	.
*	*Xij	*	*	*	*	*	*	*
2GG/	in	.	.	.	.	.	.	.
.	.	.	.	.	4A/	.	.	.
*	*	*	*	*	*	*	*custos:d	*
2.BB-/	tem-	.	.	.	2G/	.	2r	.
!	!	!	!	!	!	!	!LO:PB:g=original	!
.	.	.	.	.	2F/	.	1d\	in
4AA/	.	.	.	.	.	.	.	.
=132-	=132-	=132-	=132-	=132-	=132-	=132-	=132-	=132-
2GG/	-plu(m)	.	.	.	2G/	.	.	.
2FF/	.	.	.	.	2A/	-plu(m)	2f\	tem-
2.GG/	Re-	.	.	.	2B-/	.	1d	.
.	.	.	.	.	4A/	Re-	.	.
4AA/	.	.	.	.	4G/	.	.	.
=133-	=133-	=133-	=133-	=133-	=133-	=133-	=133-	=133-
2BB-/	.	.	.	.	4F/	.	2.d/	-plum
.	.	.	.	.	4G/	.	.	.
2FF/	.	.	.	.	2A/	.	.	.
.	.	.	.	.	.	.	4c/	.
1GG	.	.	.	.	2D/	.	4B-/	Re-
.	.	.	.	.	.	.	4A/	.
.	.	.	.	.	1G/	.	1B-/	.
=134-	=134-	=134-	=134-	=134-	=134-	=134-	=134-	=134-
0DD;l	-gis	.	.	.	.	.	.	.
.	.	.	.	.	4F/	.	4A/	.
.	.	.	.	.	4E/	.	4G/	.
.	.	.	.	.	1F#X;l	-gis,	1A;l	-gis;
==	==	==	==	==	==	==	==	==
*-	*-	*-	*-	*-	*-	*-	*-	*-
!!!system-decoration: [(s1,s2,s3,s4)]
!!!RDF**kern: l = terminal long
!!!RDF**kern: > = above
!!!RDF**kern: < = below
!!!ENC: Mateusz Solarz
!!!END: 2022-03-07
!!!ENC: Kamil Watkowski
!!!END: 2022-03-12
!!!YEC: Copyright 2022 Narodowy Instytut Fryderyka Chopina (https://polishscores.org)
!!!YEM: Licence CC BY 4.0 (https://creativecommons.org/licenses/by/4.0)
